X: 201597
T: Tony Lowe's
T: Polca Antaine Mhic L\'u
S: B.Breathnach:"Ceol Rince na hEireann" III/80 
Z: B.Black
L: 1/8
M: 2/4
Q: 275
R: polka
K: G
B/c/|de/d/ c/B/A/c/|BG G/F/G/B/|AD F>G|1 AG G :|2\
AG G2 ||
GB/d/ g>a|fe e2|FA/c/ f>g|ed d/c/B/A/|
GB/d/ g>a|fe e2|f/g/a/f/ de/f/|ag g2 :|
